packages/ui-icons/svg/Line/button-and-icon-maker.svg

<svg viewBox="0 0 1920 1920" xmlns="http://www.w3.org/2000/svg">
    <path d="M0 426.667C0 191.025 191.025 0 426.667 0c235.641 0 426.666 191.025 426.666 426.667 0 235.641-191.025 426.666-426.666 426.666C191.025 853.333 0 662.308 0 426.667zm426.667 320c-176.731 0-320-143.269-320-320s143.269-320 320-320 320 143.269 320 320-143.269 320-320 320zM0 1920v-853.33h853.333V1920H0zm106.667-106.67v-640h640v640h-640zM1920 853.333 1440 0 960 853.333h960zm-182.38-106.666L1440 217.571l-297.62 529.096h595.24zM1386.67 1920v-373.33h-373.34V1440h373.34v-373.33h106.66V1440h373.34v106.67h-373.34V1920h-106.66Z" fill-rule="evenodd" clip-rule="evenodd"/>
</svg>

<svg viewBox="0 0 1920 1920" xmlns="http://www.w3.org/2000/svg">
    <g fill-rule="evenodd" clip-rule="evenodd" stroke="none" stroke-width="1">
        <path fill-rule="evenodd" clip-rule="evenodd" d="M0 426.667C0 191.025 191.025 0 426.667 0 662.308 0 853.333 191.025 853.333 426.667 853.333 662.308 662.308 853.333 426.667 853.333 191.025 853.333 0 662.308 0 426.667zM426.667 746.667C249.936 746.667 106.667 603.398 106.667 426.667 106.667 249.936 249.936 106.667 426.667 106.667 603.398 106.667 746.667 249.936 746.667 426.667 746.667 603.398 603.398 746.667 426.667 746.667zM0 1920V1066.67H853.333V1920H0zM106.667 1813.33V1173.33H746.667V1813.33H106.667zM1920 853.333 1440 0 960 853.333H1920zM1737.62 746.667 1440 217.571 1142.38 746.667H1737.62z"/>
        <path d="M1386.67 1920V1546.67H1013.33V1440L1386.67 1440V1066.67H1493.33V1440H1866.67V1546.67H1493.33V1920H1386.67Z"/>
    </g>
</svg>
